Newaita-dark/apps/16/opera.svg

<?xml version="1.0" encoding="UTF-8"?>
<svg xmlns="http://www.w3.org/2000/svg" xmlns:xlink="http://www.w3.org/1999/xlink" width="16pt" height="16pt" viewBox="0 0 16 16" version="1.1">
<defs>
<radialGradient id="radial0" gradientUnits="userSpaceOnUse" cx="450.908936" cy="189.579361" fx="450.908936" fy="189.579361" r="21.166656" gradientTransform="matrix(0.0000000870852,-0.0390662,-0.0703192,-0.0000000507693,22.261576,31.797665)">
<stop offset="0" style="stop-color:rgb(0%,0%,0%);stop-opacity:0.313725;"/>
<stop offset="0.222222" style="stop-color:rgb(0%,0%,0%);stop-opacity:0.27451;"/>
<stop offset="1" style="stop-color:rgb(0%,0%,0%);stop-opacity:0;"/>
</radialGradient>
<radialGradient id="radial1" gradientUnits="userSpaceOnUse" cx="450.908936" cy="189.579361" fx="450.908936" fy="189.579361" r="21.166656" gradientTransform="matrix(-0.0000000870852,0.0390662,0.0703192,0.0000000507693,-6.385059,-3.763741)">
<stop offset="0" style="stop-color:rgb(0%,0%,0%);stop-opacity:0.313725;"/>
<stop offset="0.222222" style="stop-color:rgb(0%,0%,0%);stop-opacity:0.27451;"/>
<stop offset="1" style="stop-color:rgb(0%,0%,0%);stop-opacity:0;"/>
</radialGradient>
<radialGradient id="radial2" gradientUnits="userSpaceOnUse" cx="450.908936" cy="189.579361" fx="450.908936" fy="189.579361" r="21.166656" gradientTransform="matrix(-0.0000000870852,-0.0390662,0.0703192,-0.0000000507693,-6.385059,31.797665)">
<stop offset="0" style="stop-color:rgb(0%,0%,0%);stop-opacity:0.313725;"/>
<stop offset="0.222222" style="stop-color:rgb(0%,0%,0%);stop-opacity:0.27451;"/>
<stop offset="1" style="stop-color:rgb(0%,0%,0%);stop-opacity:0;"/>
</radialGradient>
<radialGradient id="radial3" gradientUnits="userSpaceOnUse" cx="450.908936" cy="189.579361" fx="450.908936" fy="189.579361" r="21.166656" gradientTransform="matrix(0.0000000870852,0.0390662,-0.0703192,0.0000000507693,22.261575,-3.763741)">
<stop offset="0" style="stop-color:rgb(0%,0%,0%);stop-opacity:0.313725;"/>
<stop offset="0.222222" style="stop-color:rgb(0%,0%,0%);stop-opacity:0.27451;"/>
<stop offset="1" style="stop-color:rgb(0%,0%,0%);stop-opacity:0;"/>
</radialGradient>
<linearGradient id="linear0" gradientUnits="userSpaceOnUse" x1="255.323059" y1="233.5" x2="255.323044" y2="254.666656" gradientTransform="matrix(0.00668003,0,0,0.031253,6.232693,6.719392)">
<stop offset="0" style="stop-color:rgb(0%,0%,0%);stop-opacity:0.27451;"/>
<stop offset="1" style="stop-color:rgb(0%,0%,0%);stop-opacity:0;"/>
</linearGradient>
<linearGradient id="linear1" gradientUnits="userSpaceOnUse" x1="960" y1="1695.118164" x2="960" y2="175.118118" gradientTransform="matrix(0.00826902,0,0,0.00826902,0,0)">
<stop offset="0" style="stop-color:rgb(93.72549%,32.54902%,31.372549%);stop-opacity:1;"/>
<stop offset="1" style="stop-color:rgb(89.803922%,45.098039%,45.098039%);stop-opacity:1;"/>
</linearGradient>
</defs>
<g id="surface1">
<path style=" stroke:none;fill-rule:nonzero;fill:url(#radial0);" d="M 9.097656 14.015625 L 10.417969 14.015625 L 10.417969 13.355469 L 9.097656 13.355469 Z M 9.097656 14.015625 "/>
<path style=" stroke:none;fill-rule:nonzero;fill:url(#radial1);" d="M 6.78125 14.015625 L 5.457031 14.015625 L 5.457031 14.679688 L 6.78125 14.679688 Z M 6.78125 14.015625 "/>
<path style=" stroke:none;fill-rule:nonzero;fill:url(#radial2);" d="M 6.78125 14.015625 L 5.457031 14.015625 L 5.457031 13.355469 L 6.78125 13.355469 Z M 6.78125 14.015625 "/>
<path style=" stroke:none;fill-rule:nonzero;fill:url(#radial3);" d="M 9.097656 14.015625 L 10.417969 14.015625 L 10.417969 14.679688 L 9.097656 14.679688 Z M 9.097656 14.015625 "/>
<path style=" stroke:none;fill-rule:nonzero;fill:url(#linear0);" d="M 6.78125 13.851562 L 9.097656 13.851562 L 9.097656 14.679688 L 6.78125 14.679688 Z M 6.78125 13.851562 "/>
<path style=" stroke:none;fill-rule:nonzero;fill:url(#linear1);" d="M 7.9375 1.449219 C 5.007812 1.449219 2.644531 4.25 2.644531 7.734375 C 2.644531 11.214844 5.007812 14.015625 7.9375 14.015625 C 10.871094 14.015625 13.230469 11.214844 13.230469 7.734375 C 13.230469 4.25 10.871094 1.449219 7.9375 1.449219 Z M 7.9375 2.769531 C 9.402344 2.769531 10.585938 4.984375 10.585938 7.734375 C 10.585938 10.480469 9.402344 12.695312 7.9375 12.695312 C 6.472656 12.695312 5.292969 10.480469 5.292969 7.734375 C 5.292969 4.984375 6.472656 2.769531 7.9375 2.769531 Z M 7.9375 2.769531 "/>
<path style=" stroke:none;fill-rule:nonzero;fill:rgb(0%,0%,0%);fill-opacity:0.196078;" d="M 7.9375 2.632812 C 6.472656 2.632812 5.292969 4.84375 5.292969 7.59375 C 5.292969 7.617188 5.292969 7.640625 5.292969 7.664062 C 5.3125 4.945312 6.484375 2.769531 7.9375 2.769531 C 9.390625 2.769531 10.566406 4.945312 10.585938 7.664062 C 10.585938 7.640625 10.585938 7.617188 10.585938 7.59375 C 10.585938 4.84375 9.402344 2.632812 7.9375 2.632812 Z M 2.644531 7.664062 C 2.644531 7.6875 2.644531 7.710938 2.644531 7.734375 C 2.644531 11.214844 5.007812 14.015625 7.9375 14.015625 C 10.871094 14.015625 13.230469 11.214844 13.230469 7.734375 C 13.230469 7.710938 13.230469 7.6875 13.230469 7.664062 C 13.199219 11.113281 10.851562 13.878906 7.9375 13.878906 C 5.027344 13.878906 2.675781 11.113281 2.644531 7.664062 Z M 2.644531 7.664062 "/>
<path style=" stroke:none;fill-rule:nonzero;fill:rgb(100%,100%,100%);fill-opacity:0.392157;" d="M 7.9375 1.449219 C 5.007812 1.449219 2.644531 4.25 2.644531 7.734375 C 2.644531 7.761719 2.644531 7.789062 2.648438 7.816406 C 2.683594 4.371094 5.03125 1.613281 7.9375 1.613281 C 10.847656 1.613281 13.191406 4.371094 13.230469 7.816406 C 13.230469 7.789062 13.230469 7.761719 13.230469 7.734375 C 13.230469 4.25 10.871094 1.449219 7.9375 1.449219 Z M 5.292969 7.816406 C 5.292969 7.84375 5.292969 7.871094 5.292969 7.898438 C 5.292969 10.648438 6.472656 12.859375 7.9375 12.859375 C 9.402344 12.859375 10.585938 10.648438 10.585938 7.898438 C 10.585938 7.871094 10.585938 7.84375 10.582031 7.816406 C 10.5625 10.523438 9.390625 12.695312 7.9375 12.695312 C 6.488281 12.695312 5.316406 10.523438 5.292969 7.816406 Z M 5.292969 7.816406 "/>
<path style=" stroke:none;fill-rule:nonzero;fill:rgb(12.941177%,12.941177%,12.941177%);fill-opacity:1;" d="M 7.9375 1.402344 C 4.976562 1.402344 2.597656 4.230469 2.597656 7.734375 C 2.597656 11.234375 4.976562 14.0625 7.9375 14.0625 C 10.898438 14.0625 13.277344 11.234375 13.277344 7.734375 C 13.277344 4.230469 10.898438 1.402344 7.9375 1.402344 Z M 7.9375 1.496094 C 10.839844 1.496094 13.183594 4.273438 13.183594 7.734375 C 13.183594 11.191406 10.839844 13.96875 7.9375 13.96875 C 5.035156 13.96875 2.691406 11.191406 2.691406 7.734375 C 2.691406 4.273438 5.035156 1.496094 7.9375 1.496094 Z M 7.9375 2.722656 C 7.183594 2.722656 6.507812 3.292969 6.023438 4.199219 C 5.542969 5.105469 5.246094 6.351562 5.246094 7.734375 C 5.246094 9.113281 5.542969 10.359375 6.023438 11.265625 C 6.507812 12.171875 7.183594 12.742188 7.9375 12.742188 C 8.695312 12.742188 9.371094 12.171875 9.851562 11.265625 C 10.335938 10.359375 10.632812 9.113281 10.632812 7.734375 C 10.632812 6.351562 10.335938 5.105469 9.851562 4.199219 C 9.371094 3.292969 8.695312 2.722656 7.9375 2.722656 Z M 7.9375 2.816406 C 8.648438 2.816406 9.296875 3.355469 9.769531 4.242188 C 10.242188 5.132812 10.539062 6.363281 10.539062 7.734375 C 10.539062 9.101562 10.242188 10.332031 9.769531 11.222656 C 9.296875 12.109375 8.648438 12.648438 7.9375 12.648438 C 7.230469 12.648438 6.582031 12.109375 6.105469 11.222656 C 5.632812 10.332031 5.339844 9.101562 5.339844 7.734375 C 5.339844 6.363281 5.632812 5.132812 6.105469 4.242188 C 6.582031 3.355469 7.230469 2.816406 7.9375 2.816406 Z M 7.9375 2.816406 "/>
</g>
</svg>

<svg xmlns="http://www.w3.org/2000/svg" width="16pt" height="16pt" viewBox="0 0 16 16"><defs><radialGradient id="a" gradientUnits="userSpaceOnUse" cx="450.909" cy="189.579" fx="450.909" fy="189.579" r="21.167" gradientTransform="matrix(0 -.03907 -.07032 0 22.262 31.798)"><stop offset="0" stop-opacity=".314"/><stop offset=".222" stop-opacity=".275"/><stop offset="1" stop-opacity="0"/></radialGradient><radialGradient id="b" gradientUnits="userSpaceOnUse" cx="450.909" cy="189.579" fx="450.909" fy="189.579" r="21.167" gradientTransform="matrix(0 .03907 .07032 0 -6.385 -3.764)"><stop offset="0" stop-opacity=".314"/><stop offset=".222" stop-opacity=".275"/><stop offset="1" stop-opacity="0"/></radialGradient><radialGradient id="c" gradientUnits="userSpaceOnUse" cx="450.909" cy="189.579" fx="450.909" fy="189.579" r="21.167" gradientTransform="matrix(0 -.03907 .07032 0 -6.385 31.798)"><stop offset="0" stop-opacity=".314"/><stop offset=".222" stop-opacity=".275"/><stop offset="1" stop-opacity="0"/></radialGradient><radialGradient id="d" gradientUnits="userSpaceOnUse" cx="450.909" cy="189.579" fx="450.909" fy="189.579" r="21.167" gradientTransform="matrix(0 .03907 -.07032 0 22.262 -3.764)"><stop offset="0" stop-opacity=".314"/><stop offset=".222" stop-opacity=".275"/><stop offset="1" stop-opacity="0"/></radialGradient><linearGradient id="e" gradientUnits="userSpaceOnUse" x1="255.323" y1="233.5" x2="255.323" y2="254.667" gradientTransform="matrix(.00668 0 0 .03125 6.233 6.72)"><stop offset="0" stop-opacity=".275"/><stop offset="1" stop-opacity="0"/></linearGradient><linearGradient id="f" gradientUnits="userSpaceOnUse" x1="960" y1="1695.118" x2="960" y2="175.118" gradientTransform="rotate(.882) scale(.00827)"><stop offset="0" stop-color="#ef5350"/><stop offset="1" stop-color="#e57373"/></linearGradient></defs><path d="M9.098 14.016h1.32v-.66h-1.32zm0 0" fill="url(#a)"/><path d="M6.781 14.016H5.457v.664h1.324zm0 0" fill="url(#b)"/><path d="M6.781 14.016H5.457v-.66h1.324zm0 0" fill="url(#c)"/><path d="M9.098 14.016h1.32v.664h-1.32zm0 0" fill="url(#d)"/><path d="M6.781 13.852h2.317v.828H6.78zm0 0" fill="url(#e)"/><path d="M7.938 1.45c-2.93 0-5.293 2.8-5.293 6.284 0 3.48 2.363 6.282 5.293 6.282 2.933 0 5.292-2.801 5.292-6.282 0-3.484-2.359-6.285-5.293-6.285zm0 1.32c1.464 0 2.648 2.214 2.648 4.964 0 2.746-1.184 4.961-2.649 4.961-1.464 0-2.644-2.215-2.644-4.96 0-2.75 1.18-4.965 2.644-4.965zm0 0" fill="url(#f)"/><path d="M7.938 2.633c-1.465 0-2.645 2.21-2.645 4.96v.071c.02-2.719 1.191-4.894 2.644-4.894 1.454 0 2.63 2.175 2.649 4.894v-.07c0-2.75-1.184-4.961-2.649-4.961zM2.644 7.664v.07c0 3.48 2.363 6.282 5.292 6.282 2.934 0 5.293-2.801 5.293-6.282v-.07c-.03 3.45-2.378 6.215-5.293 6.215-2.91 0-5.261-2.766-5.292-6.215zm0 0" fill-opacity=".196"/><path d="M7.938 1.45c-2.93 0-5.293 2.8-5.293 6.284 0 .028 0 .055.003.082.036-3.445 2.383-6.203 5.29-6.203 2.91 0 5.253 2.758 5.292 6.203v-.082c0-3.484-2.359-6.285-5.293-6.285zM5.293 7.815v.082c0 2.75 1.18 4.961 2.644 4.961 1.465 0 2.649-2.21 2.649-4.96 0-.028 0-.055-.004-.083-.02 2.707-1.191 4.88-2.645 4.88-1.449 0-2.62-2.173-2.644-4.88zm0 0" fill="#fff" fill-opacity=".392"/><path d="M7.938 1.402c-2.961 0-5.34 2.828-5.34 6.332 0 3.5 2.379 6.329 5.34 6.329 2.96 0 5.34-2.829 5.34-6.329 0-3.504-2.38-6.332-5.34-6.332zm0 .094c2.902 0 5.246 2.777 5.246 6.238 0 3.457-2.344 6.235-5.246 6.235-2.903 0-5.247-2.778-5.247-6.235 0-3.46 2.344-6.238 5.247-6.238zm0 1.227c-.754 0-1.43.57-1.915 1.476-.48.906-.777 2.153-.777 3.535 0 1.38.297 2.625.777 3.532.485.906 1.16 1.476 1.915 1.476.757 0 1.433-.57 1.914-1.476.484-.907.78-2.153.78-3.532 0-1.382-.296-2.629-.78-3.535-.48-.906-1.157-1.476-1.915-1.476zm0 .093c.71 0 1.359.54 1.832 1.426.472.89.77 2.121.77 3.492 0 1.368-.298 2.598-.77 3.489-.473.886-1.122 1.425-1.832 1.425-.708 0-1.356-.539-1.833-1.425-.472-.891-.765-2.121-.765-3.489 0-1.37.293-2.601.765-3.492.477-.887 1.125-1.426 1.832-1.426zm0 0" fill="#212121"/></svg>
